X:1
T:Title
L:1/8
Q:1/4=120
M:4/4
K:C
V:1 treble nm="Church Organ, Staff"
V:1
 G2 c2 c2 c2 | BA G2- G/ z/ F E2 | G2 AB c2 d2- | dc B6 | GF c2 c2 c2 | BA G2- G/ z/ F E2 | %6
w: By~C.~Simper * * *||||||
 G2 CD EF E2 | D2 C6 | E2 E2- E/ z/ _E =E2 | G2 F2- F/ z/ E F2 | A2 G2- G/ z/ c B2 | c2 d6 | %12
w: ||||||
 G2 e2- e/ z/ e d2 | B2 c2 d2 B2 | G2 E^F G2 G2 | ^F2 G6 | G2 GA G2 z2 | G2 GA G2 z2 | %18
w: ||||||
 G2 c2- c/ z/ c d2- | dc B6 | cB A2- A/ z/ A G2 | c2 c2 d2 e2 | c2 BA GA B2 | d2 c6 |] %24
w: ||||||

